folder-upload.svg

<svg fill="currentColor" viewBox="0 0 24 24"><path d="M20 6a2 2 0 0 1 2 2v10a2 2 0 0 1-2 2H4a2 2 0 0 1-2-2V6a2 2 0 0 1 2-2h6l2 2zm-9.25 7H14v4h2v-4h3.25L15 8.75"/></svg>

<svg  viewBox="0 0 24 24" fill="currentColor"><path  d="M20,6A2,2 0 0,1 22,8V18A2,2 0 0,1 20,20H4A2,2 0 0,1 2,18V6A2,2 0 0,1 4,4H10L12,6H20M10.75,13H14V17H16V13H19.25L15,8.75"/></svg>
